src/assets/icons/weeks,simple,28.svg

<svg width="48" height="48" viewBox="0 0 48 48" fill="none" xmlns="http://www.w3.org/2000/svg">
<rect opacity="0.2" x="5" y="5" width="38" height="38" rx="4" fill="black"/>
<path d="M5 13C5 9.22876 5 7.34315 6.17157 6.17157C7.34315 5 9.22876 5 13 5H35C38.7712 5 40.6569 5 41.8284 6.17157C43 7.34315 43 9.22876 43 13V15H5V13Z" fill="black"/>
<path d="M9.92259 38H22.3658V34.983H15.0362V34.8636L17.5845 32.3665C21.1726 29.0938 22.1357 27.4574 22.1357 25.4716C22.1357 22.446 19.6641 20.3068 15.9226 20.3068C12.2578 20.3068 9.74361 22.4972 9.75213 25.9233H13.255C13.2464 24.2528 14.3033 23.2301 15.897 23.2301C17.4311 23.2301 18.5732 24.1847 18.5732 25.7188C18.5732 27.108 17.7209 28.0625 16.1357 29.5881L9.92259 35.3409V38ZM31.5511 38.2386C35.4886 38.2386 38.3182 36.1335 38.3267 33.304C38.3182 31.1222 36.6392 29.3409 34.5426 28.9915V28.8722C36.3665 28.4972 37.6705 26.9205 37.679 25.0028C37.6705 22.3011 35.0795 20.3068 31.5511 20.3068C28.0142 20.3068 25.4233 22.3011 25.4318 25.0028C25.4233 26.9119 26.7102 28.4972 28.5682 28.8722V28.9915C26.4375 29.3409 24.7756 31.1222 24.7841 33.304C24.7756 36.1335 27.6136 38.2386 31.5511 38.2386ZM31.5511 35.5284C29.7955 35.5284 28.6193 34.4886 28.6193 33.0142C28.6193 31.5057 29.8551 30.4148 31.5511 30.4148C33.2386 30.4148 34.483 31.5057 34.483 33.0142C34.483 34.4972 33.2983 35.5284 31.5511 35.5284ZM31.5511 27.7301C30.0767 27.7301 29.0284 26.767 29.0284 25.3864C29.0284 24.0227 30.0597 23.0852 31.5511 23.0852C33.0341 23.0852 34.0739 24.0312 34.0739 25.3864C34.0739 26.767 33.017 27.7301 31.5511 27.7301Z" fill="black"/>
</svg>

<svg xmlns="http://www.w3.org/2000/svg" width="48" height="48" fill="none" viewBox="0 0 48 48">
  <rect width="38" height="38" x="5" y="5" fill="#000" opacity=".2" rx="4"/>
  <path fill="#000" d="M5 13c0-3.771 0-5.657 1.172-6.828C7.343 5 9.229 5 13 5h22c3.771 0 5.657 0 6.828 1.172C43 7.343 43 9.229 43 13v2H5v-2zM9.923 38h12.443v-3.017h-7.33v-.12l2.548-2.496c3.589-3.273 4.552-4.91 4.552-6.895 0-3.026-2.472-5.165-6.213-5.165-3.665 0-6.18 2.19-6.17 5.616h3.502c-.009-1.67 1.048-2.693 2.642-2.693 1.534 0 2.676.955 2.676 2.489 0 1.389-.852 2.343-2.437 3.87L9.923 35.34V38zm21.628.239c3.938 0 6.767-2.105 6.776-4.935-.009-2.182-1.688-3.963-3.784-4.313v-.119c1.824-.375 3.127-1.951 3.136-3.87-.009-2.7-2.6-4.695-6.128-4.695-3.537 0-6.128 1.994-6.12 4.696-.008 1.909 1.28 3.494 3.137 3.87v.118c-2.13.35-3.792 2.131-3.784 4.313-.008 2.83 2.83 4.935 6.767 4.935zm0-2.71c-1.755 0-2.932-1.04-2.932-2.515 0-1.508 1.236-2.6 2.932-2.6 1.688 0 2.932 1.092 2.932 2.6 0 1.483-1.185 2.514-2.932 2.514zm0-7.799c-1.474 0-2.523-.963-2.523-2.344 0-1.363 1.032-2.3 2.523-2.3 1.483 0 2.523.945 2.523 2.3 0 1.381-1.057 2.344-2.523 2.344z"/>
</svg>
